source/img/icon-menu.svg

<svg width="28" height="19" viewBox="0 0 28 19" fill="none" xmlns="http://www.w3.org/2000/svg">
<path d="M25.0976 0.638428H2.68903C1.21006 0.638428 0 1.27898 0 2.06187C0 2.84477 1.21006 3.48532 2.68903 3.48532H25.0976C26.5766 3.48532 27.7866 2.84477 27.7866 2.06187C27.7866 1.27898 26.5766 0.638428 25.0976 0.638428Z" fill="#D0AD4A"/>
<path d="M25.0976 8.09448H2.68903C1.21006 8.09448 0 8.73503 0 9.51793C0 10.3008 1.21006 10.9414 2.68903 10.9414H25.0976C26.5766 10.9414 27.7866 10.3008 27.7866 9.51793C27.7866 8.73503 26.5766 8.09448 25.0976 8.09448Z" fill="#D0AD4A"/>
<path d="M25.0976 15.5503H2.68903C1.21006 15.5503 0 16.1908 0 16.9737C0 17.7566 1.21006 18.3972 2.68903 18.3972H25.0976C26.5766 18.3972 27.7866 17.7566 27.7866 16.9737C27.7866 16.1908 26.5766 15.5503 25.0976 15.5503Z" fill="#D0AD4A"/>
</svg>

<svg width="28" height="19" fill="none" xmlns="http://www.w3.org/2000/svg"><path d="M25.098.638H2.689C1.21.638 0 1.28 0 2.062c0 .783 1.21 1.423 2.689 1.423h22.409c1.479 0 2.689-.64 2.689-1.423S26.577.638 25.097.638zm0 7.456H2.689C1.21 8.094 0 8.735 0 9.518c0 .783 1.21 1.423 2.689 1.423h22.409c1.479 0 2.689-.64 2.689-1.423s-1.21-1.424-2.69-1.424zm0 7.456H2.689C1.21 15.55 0 16.19 0 16.974c0 .783 1.21 1.423 2.689 1.423h22.409c1.479 0 2.689-.64 2.689-1.423s-1.21-1.424-2.69-1.424z" fill="#D0AD4A"/></svg>
